contributed-vectors/samsung_care.svg

<svg xmlns="http://www.w3.org/2000/svg" xml:space="preserve" style="fill-rule:evenodd;clip-rule:evenodd;stroke-linejoin:round;stroke-miterlimit:2" viewBox="0 0 192 192"><path d="M164.5 21.5c0-5.519-4.481-10-10-10h-133c-5.519 0-10 4.481-10 10v133c0 5.519 4.481 10 10 10h133c5.519 0 10-4.481 10-10v-133Z" style="fill:#96dfd3" transform="translate(8 8)"/><path d="M89.963 46.834a5.295 5.295 0 0 0-2.196-3.677 5.293 5.293 0 0 0-4.198-.852C58.863 48.042 40.926 70.133 40.926 96c0 30.396 24.678 55.074 55.074 55.074a55.074 55.074 0 0 0 31.532-9.92 5.259 5.259 0 0 0 .952-7.761c.012-.011.011-.011.011-.012a5.21 5.21 0 0 0-6.926-.844A44.487 44.487 0 0 1 96 140.61c-24.621 0-44.61-19.989-44.61-44.61 0-20.935 14.504-38.815 34.496-43.451a5.199 5.199 0 0 0 4.04-5.709l.037-.006Z" style="fill:#fff" transform="rotate(-.479 95.997 96.003)"/><path d="M46.948 102.894a5.299 5.299 0 0 0-4.418 6.473c6.085 24.261 27.968 41.707 53.47 41.707a55.074 55.074 0 0 0 31.532-9.92 5.259 5.259 0 0 0 .952-7.761c.012-.011.011-.011.011-.012a5.21 5.21 0 0 0-6.926-.844A44.487 44.487 0 0 1 96 140.61c-20.639 0-38.353-14.108-43.268-33.742a5.197 5.197 0 0 0-5.778-3.937l-.006-.037Z" style="fill:#fff" transform="rotate(-133.214 96 96)"/><path d="M83.032 97.653c.062 7.638 6.273 13.812 13.927 13.812 7.687 0 13.928-6.241 13.928-13.928 0-6.486-4.434-11.937-10.437-13.487a4.563 4.563 0 0 1-3.42-4.417l-.071-.002a5.076 5.076 0 0 1 6.482-4.88c9.876 2.884 17.125 11.989 17.125 22.786 0 13.029-10.578 23.607-23.607 23.607-12.998 0-23.543-10.506-23.606-23.491h-8.201l13.504-13.258 13.503 13.258h-9.127Z" style="fill:#fff" transform="translate(-.917 -1.537)"/></svg>

<?xml version="1.0" encoding="UTF-8" standalone="no"?>
<!DOCTYPE svg PUBLIC "-//W3C//DTD SVG 1.1//EN" "http://www.w3.org/Graphics/SVG/1.1/DTD/svg11.dtd">
<svg width="100%" height="100%" viewBox="0 0 192 192" version="1.1" xmlns="http://www.w3.org/2000/svg" xmlns:xlink="http://www.w3.org/1999/xlink" xml:space="preserve" xmlns:serif="http://www.serif.com/" style="fill-rule:evenodd;clip-rule:evenodd;stroke-linejoin:round;stroke-miterlimit:2;">
    <g id="Layer1">
        <g transform="matrix(1,0,0,1,8,8)">
            <path d="M164.5,21.5C164.5,15.981 160.019,11.5 154.5,11.5L21.5,11.5C15.981,11.5 11.5,15.981 11.5,21.5L11.5,154.5C11.5,160.019 15.981,164.5 21.5,164.5L154.5,164.5C160.019,164.5 164.5,160.019 164.5,154.5L164.5,21.5Z" style="fill:rgb(150,223,211);"/>
        </g>
        <g>
            <g transform="matrix(0.999965,-0.00833349,0.00833349,0.999965,-0.796682,0.803349)">
                <path d="M89.963,46.834C89.782,45.354 88.984,44.019 87.767,43.157C86.55,42.294 85.026,41.985 83.569,42.305C58.863,48.042 40.926,70.133 40.926,96C40.926,126.396 65.604,151.074 96,151.074C107.324,151.074 118.323,147.585 127.532,141.154C128.753,140.299 129.554,138.965 129.735,137.485C129.917,136.005 129.462,134.518 128.484,133.393C128.496,133.382 128.495,133.382 128.495,133.381C126.744,131.367 123.753,131.003 121.569,132.537C114.112,137.774 105.188,140.61 96,140.61C71.379,140.61 51.39,120.621 51.39,96C51.39,75.065 65.894,57.185 85.886,52.549C88.503,51.972 90.252,49.499 89.926,46.84C89.963,46.835 89.963,46.835 89.963,46.834Z" style="fill:white;"/>
            </g>
            <g transform="matrix(-0.68472,-0.728806,0.728806,-0.68472,91.7678,231.699)">
                <path d="M46.948,102.894C45.471,103.101 44.149,103.922 43.308,105.154C42.467,106.386 42.185,107.915 42.53,109.367C48.615,133.628 70.498,151.074 96,151.074C107.324,151.074 118.323,147.585 127.532,141.154C128.753,140.299 129.554,138.965 129.735,137.485C129.917,136.005 129.462,134.518 128.484,133.393C128.496,133.382 128.495,133.382 128.495,133.381C126.744,131.367 123.753,131.003 121.569,132.537C114.112,137.774 105.188,140.61 96,140.61C75.361,140.61 57.647,126.502 52.732,106.868C52.109,104.263 49.607,102.558 46.954,102.931C46.949,102.894 46.948,102.894 46.948,102.894Z" style="fill:white;"/>
            </g>
            <g transform="matrix(1,0,0,1,-0.917103,-1.53703)">
                <path d="M83.032,97.653C83.094,105.291 89.305,111.465 96.959,111.465C104.646,111.465 110.887,105.224 110.887,97.537C110.887,91.051 106.453,85.6 100.45,84.05C98.437,83.529 97.03,81.713 97.03,79.633C96.959,79.632 96.959,79.632 96.959,79.631C96.959,78.036 97.708,76.533 98.983,75.574C100.257,74.614 101.908,74.31 103.441,74.751C113.317,77.635 120.566,86.74 120.566,97.537C120.566,110.566 109.988,121.144 96.959,121.144C83.961,121.144 73.416,110.638 73.353,97.653L65.152,97.653L78.656,84.395L92.159,97.653L83.032,97.653Z" style="fill:white;"/>
            </g>
        </g>
    </g>
</svg>
